modules/feathericon/icons/artboard.svg

<?xml version="1.0" encoding="UTF-8"?>
<svg width="24px" height="24px" viewBox="0 0 24 24" version="1.1" xmlns="http://www.w3.org/2000/svg" xmlns:xlink="http://www.w3.org/1999/xlink">
    <!-- Generator: sketchtool 52.2 (67145) - http://www.bohemiancoding.com/sketch -->
    <title>artboard</title>
    <desc>Created with sketchtool.</desc>
    <g id="production" stroke="none" stroke-width="1" fill="none" fill-rule="evenodd">
        <g id="artboard" fill="#000000">
            <path d="M6,16 L6,8 L4,8 C3.44771525,8 3,7.55228475 3,7 C3,6.44771525 3.44771525,6 4,6 L6,6 L6,4 C6,3.44771525 6.44771525,3 7,3 C7.55228475,3 8,3.44771525 8,4 L8,6 L16,6 L16,4 C16,3.44771525 16.4477153,3 17,3 C17.5522847,3 18,3.44771525 18,4 L18,6 L20,6 C20.5522847,6 21,6.44771525 21,7 C21,7.55228475 20.5522847,8 20,8 L18,8 L18,16 L20,16 C20.5522847,16 21,16.4477153 21,17 C21,17.5522847 20.5522847,18 20,18 L18,18 L18,20 C18,20.5522847 17.5522847,21 17,21 C16.4477153,21 16,20.5522847 16,20 L16,18 L8,18 L8,20 C8,20.5522847 7.55228475,21 7,21 C6.44771525,21 6,20.5522847 6,20 L6,18 L4,18 C3.44771525,18 3,17.5522847 3,17 C3,16.4477153 3.44771525,16 4,16 L6,16 Z M8,16 L16,16 L16,8 L8,8 L8,16 Z" id="Shape"></path>
        </g>
    </g>
</svg>

<svg width="24" height="24" viewBox="0 0 24 24" xmlns="http://www.w3.org/2000/svg"><path d="M6 16V8H4a1 1 0 1 1 0-2h2V4a1 1 0 1 1 2 0v2h8V4a1 1 0 0 1 2 0v2h2a1 1 0 0 1 0 2h-2v8h2a1 1 0 0 1 0 2h-2v2a1 1 0 0 1-2 0v-2H8v2a1 1 0 0 1-2 0v-2H4a1 1 0 0 1 0-2h2zm2 0h8V8H8v8z" fill="#000" fill-rule="evenodd"/></svg>
